X: 27105
T: Miss MacGregor's Favourite
R: jig
M: 6/8
K: Amixolydian
e|:A>AA ABc|BcA B<Be|A>AA A<Aa|f2e fga|
A>AA ABc|BcA B<Bg|a>ea fec|B>AA A<Ac:|
|:ecc acc|BcA B<Bf|ecc acc|f2e fga|
ecc acc|BcA B<Bg|a>ea fec|A>AA A<Af:|

